!!!OTL: Beili dachu shi qionghan
!!!ARE: Asia, China,ÿHubei, Enshi
!! I, 442
!!!SCT: C1451
!!!YEM: Copyright 1995, estate of Helmut Schaffrath.
**kern
*ICvox
*Ivox
*M2/4
*k[f#c#]
*D:
{8dd
8ff#
16b
16dd
16ee
16dd
=1
2b
=2
8dd
8b
8a
8b
=3
2dd}
=4
{8dd
8ff#
16dd
16ee
16b
16dd
=5
4.ee
8ff#
=6
8dd
8b
8a
8b
=7
2b}
=8
{16dd
16ee
8b
4dd
=9
8b
16b
16a
4f#
=10
8a
8a
16b
16a
8b
=11
2a}
==
!!!AGN: Shange, Dachuge
!!!ONB: ESAC (Essen Associative Code) Database: HUANG
!!!AMT: simple duple
!!!AIN: vox
!!!EED: Helmut Schaffrath
!!!EEV: 1.0
*-
